img/add_row_after.svg

<svg xmlns="http://www.w3.org/2000/svg" width="24" height="24" viewBox="0 0 24 24">
  <path d="M19,0 C21.7600532,0.00330611633 23.9966939,2.23994685 24,5 C24,7.76142375 21.7614237,10 19,10 C16.2385763,10 14,7.76142375 14,5 C14,2.23857625 16.2385763,0 19,0 Z M21.5,5.9375 C22.017767,5.9375 22.4375,5.51776695 22.4375,5 C22.4375,4.48223305 22.017767,4.0625 21.5,4.0625 L20.25,4.0625 C20.077411,4.0625 19.9375,3.92258898 19.9375,3.75 L19.9375,2.5 C19.9375,1.98223305 19.517767,1.5625 19,1.5625 C18.482233,1.5625 18.0625,1.98223305 18.0625,2.5 L18.0625,3.75 C18.0625,3.92258898 17.922589,4.0625 17.75,4.0625 L16.5,4.0625 C15.982233,4.0625 15.5625,4.48223305 15.5625,5 C15.5625,5.51776695 15.982233,5.9375 16.5,5.9375 L17.75,5.9375 C17.922589,5.9375 18.0625,6.07741102 18.0625,6.25 L18.0625,7.5 C18.0625,8.01776695 18.482233,8.4375 19,8.4375 C19.517767,8.4375 19.9375,8.01776695 19.9375,7.5 L19.9375,6.25 C19.9375,6.07741102 20.077411,5.9375 20.25,5.9375 L21.5,5.9375 Z M5,16 C3.34314575,16 2,17.3431458 2,19 C2,20.6568542 3.34314575,22 5,22 L19,22 C20.6568542,22 22,20.6568542 22,19 C22,17.3431458 20.6568542,16 19,16 L5,16 Z M5,14 L19,14 C21.7614237,14 24,16.2385763 24,19 C24,21.7614237 21.7614237,24 19,24 L5,24 C2.23857625,24 3.38176876e-16,21.7614237 0,19 C-1.2263553e-15,16.2385763 2.23857625,14 5,14 Z"/>
</svg>

<svg width="24" height="24" viewBox="0 0 24 24" xmlns="http://www.w3.org/2000/svg"><path d="m19 0c2.7601 0.0033061 4.9967 2.2399 5 5 0 2.7614-2.2386 5-5 5s-5-2.2386-5-5 2.2386-5 5-5zm2.5 5.9375c0.51777 0 0.9375-0.41973 0.9375-0.9375s-0.41973-0.9375-0.9375-0.9375h-1.25c-0.17259 0-0.3125-0.13991-0.3125-0.3125v-1.25c0-0.51777-0.41973-0.9375-0.9375-0.9375s-0.9375 0.41973-0.9375 0.9375v1.25c0 0.17259-0.13991 0.3125-0.3125 0.3125h-1.25c-0.51777 0-0.9375 0.41973-0.9375 0.9375s0.41973 0.9375 0.9375 0.9375h1.25c0.17259 0 0.3125 0.13991 0.3125 0.3125v1.25c0 0.51777 0.41973 0.9375 0.9375 0.9375s0.9375-0.41973 0.9375-0.9375v-1.25c0-0.17259 0.13991-0.3125 0.3125-0.3125h1.25zm-16.5 10.062c-1.6569 0-3 1.3431-3 3s1.3431 3 3 3h14c1.6569 0 3-1.3431 3-3s-1.3431-3-3-3h-14zm0-2h14c2.7614 0 5 2.2386 5 5s-2.2386 5-5 5h-14c-2.7614 0-5-2.2386-5-5-1.2264e-15 -2.7614 2.2386-5 5-5z"/></svg>
